X: 1
T: O Dear Mother My Toes Are Sore
M: 6/8
L: 1/8
R: jig
K: Dmaj
|: f2e dcB | A2F D2E | F2F FED | F2A A3 |
f2e dcB | ABA FED | F2F EFE | D3 D3 :|
|: g2e f2d | cde A>ef | g2e f2d | c3 c>ef |
g2e f2d | cde a2a | efe dcB |1 ABc d>ef :|2 ABc d3||
